app/images/frach-hero-img.svg

<svg width="562" height="433" viewBox="0 0 562 433" fill="none" xmlns="http://www.w3.org/2000/svg">
<path d="M62.4594 114.709C33.7351 -44.6274 176.463 -2.74109 247.387 39.6163C450.387 139.616 512.054 217.457 492.387 281.601C459.887 387.601 321.387 432.616 209.887 401.116C121.387 376.114 206.835 263.616 63.8861 263.616C-12.3053 263.616 -25.045 186.314 57.8248 126.34C61.4317 123.73 63.2493 119.091 62.4594 114.709Z" stroke="#6D6D6D" stroke-width="2"/>
<path d="M422.442 72.5545C442.677 83.7084 400.811 92.3683 405.346 75.6721C413.092 60.3615 424.954 55.9969 422.442 72.5545Z" stroke="#6D6D6D" stroke-width="2"/>
<path d="M41.5676 296.686C59.0555 320.449 66.2905 304.566 60.8477 290.385C54.9949 278.909 30.539 282.81 41.5676 296.686Z" stroke="#6D6D6D" stroke-width="2"/>
<path d="M444.394 389.642C449.962 379.379 467.458 357.948 492.899 354.329C519.063 357.108 506.612 386.982 497.116 401.572C475.826 425.14 493.557 392.017 462.355 406.636C431.153 421.255 437.38 401.398 444.394 389.642Z" stroke="#6D6D6D" stroke-width="2"/>
<path d="M316.156 292.205C306.281 291.573 294.893 289.913 285.911 287.418C284.229 286.951 277.263 284.495 275.491 283.716C244.222 269.825 222.439 239.503 222.439 204.325C222.439 156.074 263.372 116.772 313.718 116.772C363.616 116.772 404.273 155.404 404.972 203.109H437.948C437.249 137.974 381.807 85.187 313.718 85.187C245.222 85.187 189.471 138.621 189.471 204.325C189.471 249.621 216.034 289.016 254.927 309.143C261.95 312.705 272.029 316.377 275.451 317.382C286.537 320.547 300.144 322.651 312.255 323.532C316.368 323.829 330.73 323.984 334.916 324H562V292.501H335.298C332.282 292.501 319.107 292.392 316.156 292.205ZM335.298 242.746C332.9 242.746 320.358 242.668 318.042 242.481C314.116 242.161 308.426 241.6 304.769 240.797C300.64 239.737 296.762 238.334 295.015 237.414C282.766 231.061 274.418 218.636 274.418 204.325C274.418 183.504 291.999 166.621 313.718 166.621C334.981 166.621 352.27 182.842 352.96 203.109H384.644C383.977 166.083 352.505 136.244 313.718 136.244C274.5 136.244 242.71 166.722 242.71 204.325C242.71 230.843 258.56 253.744 281.644 264.961C285.196 266.957 291.877 269.046 293.779 269.521C300.298 271.166 309.052 272.288 316.156 272.787C318.782 272.998 331.64 273.091 334.355 273.107V273.154H561.992V242.746H335.298ZM169.151 323.883H135.955V116.842H87.4466V84.9999H169.151V323.883ZM51 132.752V163.37H87.4466V323.883H119.341V132.752H51Z" fill="#E6666B"/>
<path d="M503.344 87.2236C491.388 87.2236 481.471 96.367 481.471 107.841C481.471 119.315 491.388 128.825 503.344 128.825C515.666 128.825 525.201 119.315 525.201 107.841C525.201 96.367 515.666 87.2236 503.344 87.2236ZM503.344 125.442C493.468 125.442 484.958 117.998 484.958 107.841C484.958 98.1988 493.468 90.5676 503.344 90.5676C513.212 90.5676 521.681 98.1988 521.681 107.841C521.681 117.998 513.212 125.442 503.344 125.442Z" fill="#E6666B"/>
<path d="M511.672 113.491C511.672 111.176 511.315 109.025 508.551 108.175C512.014 107.021 512.355 104.847 512.355 103.529C512.355 98.2052 507.315 97.5271 505.243 97.5271H495.708V118.145H499.683V109.687H502.812C507.315 109.687 507.689 111.675 507.689 113.491C507.689 117.007 507.689 117.669 508.551 118.145H512.534C511.672 117.311 512.014 116.664 511.672 113.491ZM504.373 106.678H499.683V100.185H503.698C506.478 100.185 508.364 101.027 508.364 103.529C508.364 104.847 507.689 106.678 504.373 106.678" fill="#E6666B"/>
</svg>

<svg xmlns="http://www.w3.org/2000/svg" width="562" height="433" fill="none"><path stroke="#6D6D6D" stroke-width="2" d="M62.46 114.709C33.734-44.627 176.462-2.741 247.386 39.616c203 100 264.667 177.841 245 241.985-32.5 106-171 151.015-282.5 119.515-88.5-25.002-3.052-137.5-146-137.5-76.192 0-88.932-77.302-6.062-137.276 3.607-2.61 5.424-7.249 4.634-11.631ZM422.442 72.555c20.235 11.153-21.631 19.813-17.096 3.117 7.746-15.31 19.608-19.675 17.096-3.117Z"/><path stroke="#6D6D6D" stroke-width="2" d="M41.568 296.686c17.488 23.763 24.722 7.88 19.28-6.301-5.853-11.476-30.309-7.575-19.28 6.301ZM444.394 389.642c5.568-10.263 23.064-31.694 48.505-35.313 26.164 2.779 13.713 32.653 4.217 47.243-21.29 23.568-3.559-9.555-34.761 5.064s-24.975-5.238-17.961-16.994Z"/><path fill="#E6666B" d="M316.156 292.205c-9.875-.632-21.263-2.292-30.245-4.787-1.682-.467-8.648-2.923-10.42-3.702-31.269-13.891-53.052-44.213-53.052-79.391 0-48.251 40.933-87.553 91.279-87.553 49.898 0 90.555 38.632 91.254 86.337h32.976c-.699-65.135-56.141-117.922-124.23-117.922-68.496 0-124.247 53.434-124.247 119.138 0 45.296 26.563 84.691 65.456 104.818 7.023 3.562 17.102 7.234 20.524 8.239 11.086 3.165 24.693 5.269 36.804 6.15 4.113.297 18.475.452 22.661.468H562v-31.499H335.298c-3.016 0-16.191-.109-19.142-.296Zm19.142-49.459c-2.398 0-14.94-.078-17.256-.265-3.926-.32-9.616-.881-13.273-1.684-4.129-1.06-8.007-2.463-9.754-3.383-12.249-6.353-20.597-18.778-20.597-33.089 0-20.821 17.581-37.704 39.3-37.704 21.263 0 38.552 16.221 39.242 36.488h31.684c-.667-37.026-32.139-66.865-70.926-66.865-39.218 0-71.008 30.478-71.008 68.081 0 26.518 15.85 49.419 38.934 60.636 3.552 1.996 10.233 4.085 12.135 4.56 6.519 1.645 15.273 2.767 22.377 3.266 2.626.211 15.484.304 18.199.32v.047h227.637v-30.408H335.298Zm-166.147 81.137h-33.196V116.842H87.447V85h81.704v238.883ZM51 132.752v30.618h36.447v160.513h31.894V132.752H51ZM503.344 87.224c-11.956 0-21.873 9.143-21.873 20.617s9.917 20.984 21.873 20.984c12.322 0 21.857-9.51 21.857-20.984 0-11.474-9.535-20.617-21.857-20.617Zm0 38.218c-9.876 0-18.386-7.444-18.386-17.601 0-9.642 8.51-17.273 18.386-17.273 9.868 0 18.337 7.63 18.337 17.273 0 10.157-8.469 17.601-18.337 17.601Z"/><path fill="#E6666B" d="M511.672 113.491c0-2.315-.357-4.466-3.121-5.316 3.463-1.154 3.804-3.328 3.804-4.646 0-5.324-5.04-6.002-7.112-6.002h-9.535v20.618h3.975v-8.458h3.129c4.503 0 4.877 1.988 4.877 3.804 0 3.516 0 4.178.862 4.654h3.983c-.862-.834-.52-1.481-.862-4.654Zm-7.299-6.813h-4.69v-6.493h4.015c2.78 0 4.666.842 4.666 3.344 0 1.318-.675 3.149-3.991 3.149"/></svg>
